X: 20
T:Streets of Minneapolis
A:Bruce Springsteen
M:C|
L:1/8
R:Lament
K: D
Q:100
|:"D"BA2AA3B-|BA{D}FD z3d|"G"d/c/d3cB2A|
w:Through the win-ter's ice _and co-ld Down Ni-col-let Av-e-nue. A
w:smoke and rub-ber bul-lets. ___In the dawn's ear-ly light
"D"z7 G|"G"d/d/d zczB c-|"D"A2 AAz2AB|BFzF2Fz E|
w:A ci-ty a-flame fought fire -and ice 'Neath an oc-cu-pi-er's boots
w:__Cit-i-zens stood for jus--tice Their voi-ces ring-ing through the night
"A7"z4zAz A|"D"A2 A A3/F3/ AF|AA2Dz2d2|
w:King Trump's pri-vate ar-my from the D-H-S Guns 
w:___And there were blood-y foot-prints. Where _mer-cy should _have _stood
"G"dd2zcB z A|"D"z5 dc|"G"d/d/d/d/z c z BGB|
w:bel-ted to their coats Came to Min-ne-ap-o-lis to en-force
w:should _have _stood And _two _dead, _left to die on 
"D" z A A2 z3 A|B F3 "A7"F2{A}F-D|"D"D4z2 F/A3/:|
w: the law. Or so their sto-ry _goes. A-gainst
w:snow filled streets Alex Pretti and Renee _Good. Oh, our 
"G"d/d/d z/ d/d2 d2 e-|e d2 d2 z2d-|
w:Min-ne-ap-o-lis, I hear _your voice Sing-
dddd c B2 A-|"D"A2 z4zd|"G"d d2 d2 z2 e|d2 d2 z2 dd|
w:_ing through the blood-y mist. _We'll take our stand for this land And the
d3 d c {A}B2A-|"D"A2 z3d-|"G"d/d/ d2 d2 e-|
w:stran-ger in our midst _Here in our home, they killed 
e d2 d2 z (3zdd-| d/d3/ c B2 A| z4"D"z2AA|"D5"BAA A3 AB|
w:and roamed In the winter _of twen-ty-six We'll re-mem-ber the names of those
A D2 z2 G/G/ GG|"A7"z2G/F/F- F G/F/ E D|"D" D4z4|
w: who died On the streets of  Min-ne-ap-----o-lis
W:
W:Trump's federal thugs beat up on
W:His face and his chest
W:Then we heard the gunshots
W:And Alex Pretti lay in the snow dead
W:Their claim was selfdefense, sir
W:Just don't believe your eyes
W:It's our blood and bones
W:And these whistles and phones
W:Against Miller and Noem's  dirty lies
W:
W:Oh, our Minneapolis, I hear your voice
W:Crying through the bloody mist
W:We'll remember the names of those who died
W:On the streets of  Minneapolis
W:
W:Now they say they're here to uphold the law
W:But they trample on our rights
W:If your skin is black or brown, my friend
W:You can be questioned or deported on  sight
W:In our chants of "ICE out now"
W:Our city's heart and soul persists
W:Through broken glass and bloody tears
W:On the streets of Minneapolis
W:
W:Oh, our Minneapolis, I hear your voice
W:Singing through the bloody mist
W:Here in our home, they killed and roamed
W:In the winter of twentysix
W:We'll take our stand for this land
W:And the stranger in our midst
W:We'll remember the names of those who died
W:On the streets of  Minneapolis
W: 
W:We'll remember the names of those who died
W:On the streets of  Minneapolis
W:ICE out
